images/icons/inst.svg

<svg width="13" height="13" viewBox="0 0 13 13" fill="none" xmlns="http://www.w3.org/2000/svg">
<path d="M6.57893 4.16296C5.43206 4.16296 4.49612 5.0989 4.49612 6.24578C4.49612 7.39265 5.43206 8.32859 6.57893 8.32859C7.72581 8.32859 8.66175 7.39265 8.66175 6.24578C8.66175 5.0989 7.72581 4.16296 6.57893 4.16296ZM12.8258 6.24578C12.8258 5.38328 12.8336 4.52859 12.7851 3.66765C12.7367 2.66765 12.5086 1.78015 11.7773 1.0489C11.0445 0.31609 10.1586 0.0895272 9.15862 0.0410897C8.29612 -0.00734777 7.44143 0.000464757 6.5805 0.000464757C5.718 0.000464757 4.86331 -0.00734777 4.00237 0.0410897C3.00237 0.0895272 2.11487 0.317652 1.38362 1.0489C0.650806 1.78171 0.424244 2.66765 0.375806 3.66765C0.327369 4.53015 0.335182 5.38484 0.335182 6.24578C0.335182 7.10671 0.327369 7.96296 0.375806 8.8239C0.424244 9.8239 0.652369 10.7114 1.38362 11.4427C2.11643 12.1755 3.00237 12.402 4.00237 12.4505C4.86487 12.4989 5.71956 12.4911 6.5805 12.4911C7.443 12.4911 8.29768 12.4989 9.15862 12.4505C10.1586 12.402 11.0461 12.1739 11.7773 11.4427C12.5101 10.7098 12.7367 9.8239 12.7851 8.8239C12.8351 7.96296 12.8258 7.10828 12.8258 6.24578ZM6.57893 9.45046C4.8055 9.45046 3.37425 8.01921 3.37425 6.24578C3.37425 4.47234 4.8055 3.04109 6.57893 3.04109C8.35237 3.04109 9.78365 4.47234 9.78365 6.24578C9.78365 8.01921 8.35237 9.45046 6.57893 9.45046ZM9.91485 3.65828C9.50081 3.65828 9.16643 3.3239 9.16643 2.90984C9.16643 2.49578 9.50081 2.1614 9.91485 2.1614C10.3289 2.1614 10.6633 2.49578 10.6633 2.90984C10.6634 3.00816 10.6441 3.10554 10.6065 3.1964C10.569 3.28726 10.5138 3.36982 10.4443 3.43934C10.3748 3.50886 10.2922 3.56399 10.2014 3.60156C10.1105 3.63913 10.0131 3.6584 9.91485 3.65828Z" fill="#C3C3C3"/>
</svg>

<svg width="13" height="13" fill="none" xmlns="http://www.w3.org/2000/svg"><path d="M6.579 4.163a2.087 2.087 0 00-2.083 2.083c0 1.147.936 2.083 2.083 2.083a2.087 2.087 0 002.083-2.083 2.087 2.087 0 00-2.083-2.083zm6.247 2.083c0-.863.008-1.717-.04-2.578-.05-1-.277-1.888-1.009-2.62C11.045.317 10.16.09 9.16.042 8.296-.007 7.44.001 6.58.001c-.862 0-1.717-.008-2.578.04-1 .049-1.887.277-2.618 1.008C.65 1.782.424 2.668.376 3.668c-.049.862-.04 1.717-.04 2.578 0 .86-.009 1.717.04 2.578.048 1 .276 1.887 1.008 2.619.732.732 1.618.959 2.618 1.008.863.048 1.718.04 2.579.04.862 0 1.717.008 2.578-.04 1-.049 1.887-.277 2.618-1.008.733-.733.96-1.62 1.008-2.62.05-.86.04-1.715.04-2.577zM6.579 9.45a3.2 3.2 0 01-3.205-3.204A3.2 3.2 0 016.58 3.04a3.2 3.2 0 013.205 3.205A3.2 3.2 0 016.579 9.45zm3.336-5.792a.748.748 0 110-1.497.748.748 0 110 1.497z" fill="#C3C3C3"/></svg>
